X: 39650
T: Templehouse, The
R: jig
M: 6/8
K: Eminor
|:B|E3 G2A|B3 BGE|DED F2G|A3 AFD|
E3 G2A|BAB gfe|dB/c/d FGA|GEE E3:|
|:g3 eBe|g3 efg|f3 dB/c/d|fef def|
g3 eBe|gfg bag|fed fg/a/f|gee e2f|
g3 eBe|g3 efg|f3 dB/c/d|fef def|
gfg aga|bge edB|dB/c/d FGA|GEE E3||

